16x16/actions/font-size-up.svg

<svg viewBox="0 0 16 16" xmlns="http://www.w3.org/2000/svg"><path d="m6.383 2-4.383 11h1.357l1.19-3h4.973l1.19 3h1.357l-4.381-11zm6.117 0-.219.188-2.281 2.312v1.406l2-2v3.094h1v-3.094l2 2v-1.406l-2.281-2.313zm-5.494 1.328 2.121 5.672h-4.186c0 .007 2.065-5.672 2.065-5.672z" fill="#8b9cbe"/></svg>

<svg viewBox="0 0 16 16" xmlns="http://www.w3.org/2000/svg">
    <path d="M6.383 2 2 13h1.357l1.19-3H9.52l1.19 3h1.357L7.686 2zM12.5 2l-.219.188L10 4.5v1.406l2-2V7h1V3.906l2 2V4.5l-2.281-2.313zM7.006 3.328 9.127 9H4.941c0 .007 2.065-5.672 2.065-5.672z" fill="#f4f4f7"/>
</svg>
